src/images/no-photo.svg

<svg width="263" height="351" viewBox="0 0 263 351" fill="none" xmlns="http://www.w3.org/2000/svg">
<mask id="mask0" mask-type="alpha" maskUnits="userSpaceOnUse" x="0" y="0" width="263" height="351">
<rect width="263" height="351" fill="#F1F5F5"/>
</mask>
<g mask="url(#mask0)">
<rect width="263" height="351" fill="#F1F5F5"/>
<path d="M85.4827 210.558H64.2067C63.7493 210.486 63.2798 210.406 62.9096 210.137C62.3527 209.732 62.1112 209.054 62 208.35V100.209C62.1483 99.2707 62.6456 98.3939 63.5248 98.1081C63.7435 98.0368 63.9795 98.036 64.2067 98H172.251C172.476 98.036 172.704 98.0721 172.932 98.1081C173.567 98.4318 174.136 98.871 174.348 99.5262C174.42 99.7451 174.42 99.9813 174.457 100.209V121.483L195.761 121.448C195.989 121.484 196.216 121.519 196.444 121.555C197.08 121.878 197.649 122.318 197.864 122.973C197.935 123.193 197.935 123.429 197.972 123.657V231.789C197.824 232.727 197.326 233.604 196.447 233.89C196.227 233.961 195.991 233.962 195.764 233.998L87.6897 234C87.2321 233.928 86.7625 233.848 86.3925 233.578C85.8356 233.173 85.5942 232.496 85.4827 231.791V210.558ZM193.558 212.457H89.8964V229.583L193.558 229.58V212.457ZM170.185 156.348L149.048 176.764L179.655 207.21C179.92 207.575 180.082 207.727 180.187 208.04H193.558V178.199L170.185 156.348ZM93.2419 207.851C93.2549 207.914 93.2651 207.976 93.2727 208.04H174.226L134.622 168.643L93.2419 207.851ZM170.043 121.49V102.417H66.4134V206.141H85.4827V123.831C85.5551 123.374 85.6349 122.905 85.9033 122.534C86.3071 121.977 86.9831 121.735 87.686 121.623L170.043 121.49ZM193.558 172.154V125.869C159.005 125.925 124.45 125.981 89.8964 126.037V204.939L133.143 163.962C133.698 163.579 133.703 163.577 134.347 163.38C134.573 163.383 134.799 163.385 135.025 163.388C135.665 163.6 135.67 163.603 136.215 164L145.915 173.65L168.628 151.713C169.359 151.069 169.383 151.026 170.44 151.112C171.179 151.239 171.316 151.388 171.668 151.689L193.558 172.154ZM110.811 135.514C116.338 135.567 121.57 139.83 122.626 145.344C123.376 149.26 122.048 153.514 119.191 156.307C115.854 159.569 110.546 160.655 106.156 158.859C102.28 157.273 99.3581 153.552 98.7507 149.402C98.001 144.281 100.919 138.844 105.615 136.648C107.234 135.891 109.019 135.508 110.811 135.514ZM110.683 139.931C107.186 139.965 103.901 142.622 103.192 146.082C102.208 150.889 106.672 156.224 112.143 155.209C115.263 154.631 117.885 151.924 118.348 148.762C118.975 144.476 115.47 140.005 110.833 139.932C110.783 139.931 110.732 139.931 110.683 139.931Z" fill="url(#paint0_linear)"/>
<path d="M69.0042 248.588C70.0762 248.588 70.9082 248.848 71.5002 249.368C72.0922 249.88 72.3882 250.604 72.3882 251.54C72.3882 252.532 72.0922 253.304 71.5002 253.856C70.9082 254.4 70.0762 254.672 69.0042 254.672H67.5042V257H65.3082V248.588H69.0042ZM68.8962 252.92C69.3442 252.92 69.6882 252.808 69.9282 252.584C70.1762 252.36 70.3002 252.036 70.3002 251.612C70.3002 251.204 70.1762 250.892 69.9282 250.676C69.6882 250.452 69.3442 250.34 68.8962 250.34H67.5042V252.92H68.8962ZM73.4644 248.588H75.6604V252.02H79.0564V248.588H81.2524V257H79.0564V253.772H75.6604V257H73.4644V248.588ZM86.8943 248.456C87.7503 248.456 88.5223 248.644 89.2103 249.02C89.9063 249.396 90.4503 249.912 90.8423 250.568C91.2423 251.224 91.4423 251.96 91.4423 252.776C91.4423 253.6 91.2423 254.344 90.8423 255.008C90.4503 255.672 89.9063 256.196 89.2103 256.58C88.5223 256.964 87.7503 257.156 86.8943 257.156C86.0383 257.156 85.2623 256.968 84.5663 256.592C83.8783 256.208 83.3343 255.684 82.9343 255.02C82.5423 254.348 82.3463 253.6 82.3463 252.776C82.3463 251.96 82.5423 251.224 82.9343 250.568C83.3343 249.912 83.8783 249.396 84.5663 249.02C85.2623 248.644 86.0383 248.456 86.8943 248.456ZM86.9183 250.316C86.5023 250.316 86.1143 250.424 85.7543 250.64C85.4023 250.856 85.1223 251.156 84.9143 251.54C84.7063 251.916 84.6023 252.332 84.6023 252.788C84.6023 253.252 84.7063 253.676 84.9143 254.06C85.1303 254.436 85.4143 254.736 85.7663 254.96C86.1183 255.176 86.5023 255.284 86.9183 255.284C87.3343 255.284 87.7143 255.176 88.0583 254.96C88.4103 254.736 88.6863 254.436 88.8863 254.06C89.0863 253.676 89.1863 253.252 89.1863 252.788C89.1863 252.332 89.0863 251.916 88.8863 251.54C88.6863 251.156 88.4103 250.856 88.0583 250.64C87.7143 250.424 87.3343 250.316 86.9183 250.316ZM91.5176 248.588H98.7296V250.4H96.2096V257H94.0136V250.4H91.5176V248.588ZM103.207 248.456C104.063 248.456 104.835 248.644 105.523 249.02C106.219 249.396 106.763 249.912 107.155 250.568C107.555 251.224 107.755 251.96 107.755 252.776C107.755 253.6 107.555 254.344 107.155 255.008C106.763 255.672 106.219 256.196 105.523 256.58C104.835 256.964 104.063 257.156 103.207 257.156C102.351 257.156 101.575 256.968 100.879 256.592C100.191 256.208 99.6468 255.684 99.2468 255.02C98.8548 254.348 98.6588 253.6 98.6588 252.776C98.6588 251.96 98.8548 251.224 99.2468 250.568C99.6468 249.912 100.191 249.396 100.879 249.02C101.575 248.644 102.351 248.456 103.207 248.456ZM103.231 250.316C102.815 250.316 102.427 250.424 102.067 250.64C101.715 250.856 101.435 251.156 101.227 251.54C101.019 251.916 100.915 252.332 100.915 252.788C100.915 253.252 101.019 253.676 101.227 254.06C101.443 254.436 101.727 254.736 102.079 254.96C102.431 255.176 102.815 255.284 103.231 255.284C103.647 255.284 104.027 255.176 104.371 254.96C104.723 254.736 104.999 254.436 105.199 254.06C105.399 253.676 105.499 253.252 105.499 252.788C105.499 252.332 105.399 251.916 105.199 251.54C104.999 251.156 104.723 250.856 104.371 250.64C104.027 250.424 103.647 250.316 103.231 250.316ZM113.556 253.532C113.556 254.06 113.712 254.484 114.024 254.804C114.336 255.124 114.732 255.284 115.212 255.284C115.684 255.284 116.064 255.128 116.352 254.816C116.648 254.496 116.796 254.068 116.796 253.532V248.588H118.992V253.532C118.992 254.26 118.836 254.9 118.524 255.452C118.22 255.996 117.78 256.416 117.204 256.712C116.636 257.008 115.968 257.156 115.2 257.156C114.432 257.156 113.756 257.008 113.172 256.712C112.596 256.416 112.148 255.996 111.828 255.452C111.516 254.9 111.36 254.26 111.36 253.532V248.588H113.556V253.532ZM126.24 248.588H128.28V257H126.36L122.544 251.972V257H120.492V248.588H122.424L126.252 253.652L126.24 248.588ZM136.105 257L135.529 255.512H131.893L131.305 257H129.049L132.661 248.588H134.917L138.445 257H136.105ZM132.553 253.832H134.881L133.729 250.832L132.553 253.832ZM137.71 248.588H140.074L142.174 254.672L144.286 248.588H146.542L143.254 257H140.974L137.71 248.588ZM152.863 257L152.287 255.512H148.651L148.063 257H145.807L149.419 248.588H151.675L155.203 257H152.863ZM149.311 253.832H151.639L150.487 250.832L149.311 253.832ZM155.964 248.588H158.16V257H155.964V248.588ZM159.796 248.588H161.992V255.128H165.556V257H159.796V248.588ZM172.773 257L172.197 255.512H168.561L167.973 257H165.717L169.329 248.588H171.585L175.113 257H172.773ZM169.221 253.832H171.549L170.397 250.832L169.221 253.832ZM179.871 248.588C180.503 248.588 181.051 248.676 181.515 248.852C181.987 249.02 182.351 249.264 182.607 249.584C182.863 249.904 182.991 250.28 182.991 250.712C182.991 251.152 182.859 251.536 182.595 251.864C182.339 252.192 181.987 252.416 181.539 252.536C182.075 252.64 182.495 252.884 182.799 253.268C183.111 253.652 183.267 254.116 183.267 254.66C183.267 255.132 183.135 255.548 182.871 255.908C182.607 256.26 182.231 256.532 181.743 256.724C181.255 256.908 180.683 257 180.027 257H175.875V248.588H179.871ZM179.751 251.936C180.055 251.936 180.295 251.864 180.471 251.72C180.647 251.568 180.735 251.36 180.735 251.096C180.735 250.84 180.647 250.644 180.471 250.508C180.295 250.364 180.055 250.296 179.751 250.304H178.071V251.936H179.751ZM179.751 255.296C180.135 255.296 180.439 255.216 180.663 255.056C180.887 254.896 180.999 254.672 180.999 254.384C180.999 254.12 180.887 253.912 180.663 253.76C180.439 253.6 180.135 253.524 179.751 253.532H178.071V255.296H179.751ZM184.464 248.588H186.66V255.128H190.224V257H184.464V248.588ZM191.226 248.588H197.862V250.34H193.422V251.912H197.43V253.652L193.422 253.664V255.248H197.982V257H191.226V248.588Z" fill="#1A0F51"/>
</g>
<defs>
<linearGradient id="paint0_linear" x1="62" y1="98" x2="211.601" y2="253.398" gradientUnits="userSpaceOnUse">
<stop stop-color="#4B3674"/>
<stop offset="1" stop-color="#21125E"/>
</linearGradient>
</defs>
</svg>

<svg width="263" height="351" fill="none" xmlns="http://www.w3.org/2000/svg"><mask id="a" maskUnits="userSpaceOnUse" x="0" y="0" width="263" height="351"><path fill="#F1F5F5" d="M0 0h263v351H0z"/></mask><g mask="url(#a)"><path fill="#F1F5F5" d="M0 0h263v351H0z"/><path d="M85.483 210.558H64.207c-.458-.072-.927-.152-1.297-.421-.557-.405-.799-1.083-.91-1.787V100.209c.148-.938.646-1.815 1.525-2.1.218-.072.455-.073.682-.109H172.25l.681.108c.635.324 1.204.763 1.416 1.418.072.22.072.455.109.683v21.274l21.304-.035.683.107c.636.323 1.205.763 1.42 1.418.071.22.071.456.108.684v108.132c-.148.938-.646 1.815-1.525 2.101-.22.071-.456.072-.683.108L87.69 234c-.458-.072-.927-.152-1.297-.422-.557-.405-.799-1.082-.91-1.787v-21.233zm108.075 1.899H89.896v17.126l103.662-.003v-17.123zm-23.373-56.109l-21.137 20.416 30.607 30.446c.265.365.427.517.532.83h13.371v-29.841l-23.373-21.851zm-76.943 51.503c.013.063.023.125.03.189h80.954l-39.604-39.397-41.38 39.208zm76.801-86.361v-19.073H66.413v103.724h19.07v-82.31c.072-.457.152-.926.42-1.297.404-.557 1.08-.799 1.783-.911l82.357-.133zm23.515 50.664v-46.285l-103.662.168v78.902l43.247-40.977c.555-.383.56-.385 1.204-.582l.678.008c.64.212.645.215 1.19.612l9.7 9.65 22.713-21.937c.731-.644.755-.687 1.812-.601.739.127.876.276 1.228.577l21.89 20.465zm-82.747-36.64c5.527.053 10.759 4.316 11.815 9.83.75 3.916-.578 8.17-3.435 10.963-3.337 3.262-8.645 4.348-13.035 2.552-3.876-1.586-6.798-5.307-7.405-9.457-.75-5.121 2.168-10.558 6.864-12.754a12.198 12.198 0 015.196-1.134zm-.128 4.417c-3.497.034-6.782 2.691-7.491 6.151-.984 4.807 3.48 10.142 8.951 9.127 3.12-.578 5.742-3.285 6.205-6.447.627-4.286-2.878-8.757-7.515-8.83l-.15-.001z" fill="url(#paint0_linear)"/><path d="M69.004 248.588c1.072 0 1.904.26 2.496.78.592.512.888 1.236.888 2.172 0 .992-.296 1.764-.888 2.316-.592.544-1.424.816-2.496.816h-1.5V257h-2.196v-8.412h3.696zm-.108 4.332c.448 0 .792-.112 1.032-.336.248-.224.372-.548.372-.972 0-.408-.124-.72-.372-.936-.24-.224-.584-.336-1.032-.336h-1.392v2.58h1.392zm4.568-4.332h2.196v3.432h3.396v-3.432h2.196V257h-2.196v-3.228H75.66V257h-2.196v-8.412zm13.43-.132c.856 0 1.628.188 2.316.564.696.376 1.24.892 1.632 1.548.4.656.6 1.392.6 2.208 0 .824-.2 1.568-.6 2.232a4.226 4.226 0 01-1.632 1.572c-.688.384-1.46.576-2.316.576-.856 0-1.632-.188-2.328-.564a4.338 4.338 0 01-1.632-1.572 4.371 4.371 0 01-.588-2.244c0-.816.196-1.552.588-2.208.4-.656.944-1.172 1.632-1.548.696-.376 1.472-.564 2.328-.564zm.024 1.86c-.416 0-.804.108-1.164.324a2.338 2.338 0 00-.84.9 2.535 2.535 0 00-.312 1.248c0 .464.104.888.312 1.272.216.376.5.676.852.9.352.216.736.324 1.152.324.416 0 .796-.108 1.14-.324.352-.224.628-.524.828-.9.2-.384.3-.808.3-1.272 0-.456-.1-.872-.3-1.248a2.252 2.252 0 00-.828-.9 2.101 2.101 0 00-1.14-.324zm4.6-1.728h7.212v1.812h-2.52v6.6h-2.196v-6.6h-2.496v-1.812zm11.689-.132c.856 0 1.628.188 2.316.564.696.376 1.24.892 1.632 1.548.4.656.6 1.392.6 2.208 0 .824-.2 1.568-.6 2.232a4.226 4.226 0 01-1.632 1.572c-.688.384-1.46.576-2.316.576-.856 0-1.632-.188-2.328-.564a4.339 4.339 0 01-1.632-1.572 4.371 4.371 0 01-.588-2.244c0-.816.196-1.552.588-2.208.4-.656.944-1.172 1.632-1.548.696-.376 1.472-.564 2.328-.564zm.024 1.86c-.416 0-.804.108-1.164.324a2.338 2.338 0 00-.84.9 2.535 2.535 0 00-.312 1.248c0 .464.104.888.312 1.272.216.376.5.676.852.9.352.216.736.324 1.152.324.416 0 .796-.108 1.14-.324.352-.224.628-.524.828-.9.2-.384.3-.808.3-1.272 0-.456-.1-.872-.3-1.248a2.252 2.252 0 00-.828-.9 2.101 2.101 0 00-1.14-.324zm10.325 3.216c0 .528.156.952.468 1.272.312.32.708.48 1.188.48.472 0 .852-.156 1.14-.468.296-.32.444-.748.444-1.284v-4.944h2.196v4.944c0 .728-.156 1.368-.468 1.92a3.091 3.091 0 01-1.32 1.26c-.568.296-1.236.444-2.004.444s-1.444-.148-2.028-.444a3.244 3.244 0 01-1.344-1.26c-.312-.552-.468-1.192-.468-1.92v-4.944h2.196v4.944zm12.684-4.944h2.04V257h-1.92l-3.816-5.028V257h-2.052v-8.412h1.932l3.828 5.064-.012-5.064zm9.865 8.412l-.576-1.488h-3.636l-.588 1.488h-2.256l3.612-8.412h2.256l3.528 8.412h-2.34zm-3.552-3.168h2.328l-1.152-3-1.176 3zm5.157-5.244h2.364l2.1 6.084 2.112-6.084h2.256L143.254 257h-2.28l-3.264-8.412zM152.863 257l-.576-1.488h-3.636l-.588 1.488h-2.256l3.612-8.412h2.256l3.528 8.412h-2.34zm-3.552-3.168h2.328l-1.152-3-1.176 3zm6.653-5.244h2.196V257h-2.196v-8.412zm3.832 0h2.196v6.54h3.564V257h-5.76v-8.412zM172.773 257l-.576-1.488h-3.636l-.588 1.488h-2.256l3.612-8.412h2.256l3.528 8.412h-2.34zm-3.552-3.168h2.328l-1.152-3-1.176 3zm10.65-5.244c.632 0 1.18.088 1.644.264.472.168.836.412 1.092.732.256.32.384.696.384 1.128 0 .44-.132.824-.396 1.152-.256.328-.608.552-1.056.672.536.104.956.348 1.26.732.312.384.468.848.468 1.392 0 .472-.132.888-.396 1.248-.264.352-.64.624-1.128.816-.488.184-1.06.276-1.716.276h-4.152v-8.412h3.996zm-.12 3.348c.304 0 .544-.072.72-.216.176-.152.264-.36.264-.624 0-.256-.088-.452-.264-.588-.176-.144-.416-.212-.72-.204h-1.68v1.632h1.68zm0 3.36c.384 0 .688-.08.912-.24a.779.779 0 00.336-.672.716.716 0 00-.336-.624c-.224-.16-.528-.236-.912-.228h-1.68v1.764h1.68zm4.713-6.708h2.196v6.54h3.564V257h-5.76v-8.412zm6.762 0h6.636v1.752h-4.44v1.572h4.008v1.74l-4.008.012v1.584h4.56V257h-6.756v-8.412z" fill="#1A0F51"/></g><defs><linearGradient id="paint0_linear" x1="62" y1="98" x2="211.601" y2="253.398" gradientUnits="userSpaceOnUse"><stop stop-color="#4B3674"/><stop offset="1" stop-color="#21125E"/></linearGradient></defs></svg>
